usr/share/icons/big-icons/symbolic/actions/swap-panels.svg

<svg xmlns="http://www.w3.org/2000/svg" viewBox="0 0 16 16">
  <defs id="defs3051">
    <style type="text/css" id="current-color-scheme">
      .ColorScheme-Text {
        color:#eff0f1;
      }
      </style>
  </defs>
 <path style="fill:currentColor;fill-opacity:1;stroke:none" 
       d="M 2,2 2,14 4,14 4,13 3,13 3,5 6,5 6,9 7,9 7,2 2,2 Z m 6,0 0,7 1,0 0,-4 4,0 0,2 1,0 0,-5 -6,0 z M 12.171875,7.671875 11.464844,8.3789062 12.414062,9.328125 13.085938,10 11,10 l -2,0 0,1 1,0 1,0 2.085938,0 -0.671876,0.671875 -0.949218,0.949219 0.707031,0.707031 0.949219,-0.949219 L 15,10.5 13.121094,8.6210938 12.171875,7.671875 Z m -4.34375,2 L 6.8789062,10.621094 5,12.5 6.8789062,14.378906 7.828125,15.328125 8.5351562,14.621094 7.5859375,13.671875 6.9140625,13 9,13 l 1,0 1,0 0,-1 -2,0 -2.0859375,0 0.671875,-0.671875 L 8.5351562,10.378906 7.828125,9.671875 Z"
     class="ColorScheme-Text"
     />
</svg>

<svg xmlns="http://www.w3.org/2000/svg" viewBox="0 0 16 16">
<defs id="defs3051">
<style id="current-color-scheme" type="text/css">
.ColorScheme-Text{color:#fcfcfc}
</style>
</defs>
<path d="M2 2v12h2v-1H3V5h3v4h1V2zm6 0v7h1V5h4v2h1V2zm4.172 5.672-.707.707.95.95.67.671H9v1h4.086l-.672.672-.95.95.708.706.95-.95L15 10.5l-1.879-1.879zm-4.344 2-.95.95L5 12.5l1.879 1.879.95.95.706-.708-.95-.95-.67-.671H11v-1H6.914l.672-.672.95-.95z" class="ColorScheme-Text" style="fill:currentColor;fill-opacity:1;stroke:none"/>
</svg>
